file/cbc-news.svg

<svg clip-rule="evenodd" fill-rule="evenodd" stroke-linejoin="round" stroke-miterlimit="1.41421" viewBox="0 0 560 400" xmlns="http://www.w3.org/2000/svg"><g transform="matrix(.172084 0 0 .172084 64.8948 155)"><path d="m203.962 387.541c-19.136 4.503-39.774 8.255-59.662 8.255-84.84-.038-143.751-42.439-143.751-130.994 0-89.718 54.784-139.999 143.751-139.999 17.261 0 40.15 3.377 59.287 10.881l-3.752 44.315c-19.887-11.257-37.936-13.883-56.698-13.883-54.033 0-87.804 41.275-87.804 94.934 0 53.283 33.02 93.433 88.967 93.433 20.638 0 45.028-4.503 57.411-10.882zm38.574-258.236h91.557c33.771 0 84.428 9.756 84.428 67.205 0 31.144-21.013 52.907-52.158 58.536v.788c35.648 3.377 60.038 27.354 60.038 59.662 0 66.079-59.287 75.835-92.308 75.835h-91.557zm52.533 220.675h24.765c24.391 0 54.034-6.004 54.034-36.398 0-34.146-27.767-39.399-54.034-39.399h-24.765zm0-114.859h21.388c22.139 0 49.531-4.878 49.531-31.895 0-30.431-26.641-32.645-50.656-32.645h-20.263zm367.316 152.42c-19.137 4.503-39.775 8.255-59.662 8.255-84.84 0-143.752-42.401-143.752-130.994 0-89.718 54.784-139.999 143.752-139.999 17.26 0 40.15 3.377 59.287 10.881l-3.753 44.315c-19.887-11.257-37.898-13.883-56.697-13.883-54.034 0-87.805 41.275-87.805 94.934 0 53.283 33.021 93.433 88.968 93.433 20.638 0 45.028-4.503 57.41-10.882z" fill="#1c4882" fill-rule="nonzero"/><circle cx="1113.57" cy="261.5" fill="#cf4037" r="93.471"/><g fill-rule="nonzero"><path d="m912.178 261.5c0 51.256 42.177 93.433 93.432 93.433h.04v-186.904c-.01 0-.03 0-.04 0-51.255 0-93.432 42.178-93.432 93.433zm309.262 196.585h.12c48.62 0 88.63-40.009 88.63-88.63l-88.71-.038zm-304.61-304.427h88.82v-88.78c-48.712 0-88.799 40.07-88.82 88.78zm88.78 304.427v-88.668l-88.817.038c.062 48.668 40.149 88.671 88.817 88.63zm323.75-276.885.04 160.637c28.29-16.821 45.68-47.395 45.68-80.307 0-32.928-17.41-63.514-45.72-80.33zm-215.79-181.2c-34.15 0-64.02 18.311-80.3 45.628l160.6.038c-16.82-28.293-47.39-45.681-80.3-45.666zm-1.24 523c32.91.021 63.5-17.35 80.33-45.628l-160.63-.038c16.81 28.293 47.39 45.681 80.3 45.666zm1.24-60.15c51.25 0 93.43-42.177 93.43-93.433h-186.94c.02 51.262 42.21 93.433 93.47 93.433zm107.91-294.821v186.904c51.27 0 93.45-42.186 93.45-93.452s-42.18-93.452-93.45-93.452zm-107.91-107.729c-51.28 0-93.47 42.194-93.47 93.471h186.9c0-.013 0-.025 0-.038 0-51.256-42.18-93.433-93.43-93.433zm-261.542 201.2c0 34.146 18.311 64.015 45.666 80.337l.037-160.637c-28.307 16.803-45.711 47.382-45.703 80.3zm458.162-107.804c0-.013 0-.026 0-.038 0-48.662-40.05-88.705-88.71-88.705-.01 0-.02 0-.04 0v88.705z" fill="#cf4037"/><path d="m1560.69 126.191h64.54l99.85 195.909h.75v-195.909h50.28v261.95h-64.16l-100.19-195.947h-.75v195.947h-50.28v-261.95zm424.02 251.068c-18.39 10.132-39.4 15.385-66.46 15.385-63.79 0-100.93-36.773-100.93-100.225 0-55.91 29.64-102.101 89.71-102.101 71.67 0 91.94 49.193 91.94 116.735h-133.62c2.25 31.145 24.01 48.781 55.15 48.781 24.39 0 45.41-9.006 64.17-19.55v40.975zm-33.77-104.727c-1.51-24.39-12.76-45.403-40.9-45.403-28.15 0-42.44 19.512-44.66 45.403zm65.59-77.673h53.32l42.77 143.001h.79l39.03-143.001h58.57l42.03 143.001h.75l40.15-143.001h48.03l-59.29 193.282h-59.29l-42.06-147.504h-.75l-41.28 147.504h-57.41zm470.16 40.525c-15.38-5.253-26.64-8.255-45.02-8.255-13.51 0-29.65 4.878-29.65 21.388 0 30.769 87.43 11.257 87.43 81.05 0 45.028-40.15 63.077-81.05 63.077-19.14 0-38.65-3.377-57.07-8.293l3-41.275c15.76 7.88 32.27 12.758 49.53 12.758 12.76 0 33.02-4.878 33.02-23.64 0-37.936-87.43-12.008-87.43-81.838 0-41.651 36.4-60.075 75.84-60.075 23.64 0 39.02 3.752 54.78 7.129z" fill="#1c4882"/></g></g></svg>

<?xml version="1.0" encoding="UTF-8" standalone="no"?>
<!DOCTYPE svg PUBLIC "-//W3C//DTD SVG 1.1//EN" "http://www.w3.org/Graphics/SVG/1.1/DTD/svg11.dtd">
<svg width="100%" height="100%" viewBox="0 0 560 400" version="1.1" xmlns="http://www.w3.org/2000/svg" xmlns:xlink="http://www.w3.org/1999/xlink" xml:space="preserve" xmlns:serif="http://www.serif.com/" style="fill-rule:evenodd;clip-rule:evenodd;stroke-linejoin:round;stroke-miterlimit:1.41421;">
    <g transform="matrix(0.172084,0,0,0.172084,64.8948,155)">
        <g>
            <path d="M203.962,387.541C184.826,392.044 164.188,395.796 144.3,395.796C59.46,395.758 0.549,353.357 0.549,264.802C0.549,175.084 55.333,124.803 144.3,124.803C161.561,124.803 184.45,128.18 203.587,135.684L199.835,179.999C179.948,168.742 161.899,166.116 143.137,166.116C89.104,166.116 55.333,207.391 55.333,261.05C55.333,314.333 88.353,354.483 144.3,354.483C164.938,354.483 189.328,349.98 201.711,343.601L203.962,387.541ZM242.536,129.305L334.093,129.305C367.864,129.305 418.521,139.061 418.521,196.51C418.521,227.654 397.508,249.417 366.363,255.046L366.363,255.834C402.011,259.211 426.401,283.188 426.401,315.496C426.401,381.575 367.114,391.331 334.093,391.331L242.536,391.331L242.536,129.305ZM295.069,349.98L319.834,349.98C344.225,349.98 373.868,343.976 373.868,313.582C373.868,279.436 346.101,274.183 319.834,274.183L295.069,274.183L295.069,349.98ZM295.069,235.121L316.457,235.121C338.596,235.121 365.988,230.243 365.988,203.226C365.988,172.795 339.347,170.581 315.332,170.581L295.069,170.581L295.069,235.121ZM662.385,387.541C643.248,392.044 622.61,395.796 602.723,395.796C517.883,395.796 458.971,353.395 458.971,264.802C458.971,175.084 513.755,124.803 602.723,124.803C619.983,124.803 642.873,128.18 662.01,135.684L658.257,179.999C638.37,168.742 620.359,166.116 601.56,166.116C547.526,166.116 513.755,207.391 513.755,261.05C513.755,314.333 546.776,354.483 602.723,354.483C623.361,354.483 647.751,349.98 660.133,343.601L662.385,387.541Z" style="fill:rgb(28,72,130);fill-rule:nonzero;"/>
            <g>
                <g>
                    <circle cx="1113.57" cy="261.5" r="93.471" style="fill:rgb(207,64,55);"/>
                    <path d="M912.178,261.5L912.178,261.5C912.178,312.756 954.355,354.933 1005.61,354.933C1005.62,354.933 1005.64,354.933 1005.65,354.933L1005.65,168.029C1005.64,168.029 1005.62,168.029 1005.61,168.029C954.355,168.029 912.178,210.207 912.178,261.462C912.178,261.475 912.178,261.487 912.178,261.5ZM1221.44,458.085C1221.48,458.085 1221.52,458.085 1221.56,458.085C1270.18,458.085 1310.19,418.076 1310.19,369.455C1310.19,369.455 1310.19,369.455 1310.19,369.455L1221.48,369.417L1221.44,458.085ZM916.83,153.658L1005.65,153.658L1005.65,64.878C956.938,64.878 916.851,104.948 916.83,153.658ZM1005.61,458.085L1005.61,369.417L916.793,369.455C916.855,418.123 956.942,458.126 1005.61,458.085ZM1329.36,181.2L1329.4,341.837C1357.69,325.016 1375.08,294.442 1375.08,261.53C1375.08,228.602 1357.67,198.016 1329.36,181.2ZM1113.57,0C1079.42,0 1049.55,18.311 1033.27,45.628L1193.87,45.666C1177.05,17.373 1146.48,-0.015 1113.57,0ZM1112.33,523C1145.24,523.021 1175.83,505.65 1192.66,477.372L1032.03,477.334C1048.84,505.627 1079.42,523.015 1112.33,523ZM1113.57,462.85C1164.82,462.85 1207,420.673 1207,369.417L1020.06,369.417C1020.08,420.679 1062.27,462.85 1113.53,462.85C1113.54,462.85 1113.55,462.85 1113.57,462.85ZM1221.48,168.029L1221.48,354.933C1272.75,354.933 1314.93,312.747 1314.93,261.481C1314.93,210.215 1272.75,168.029 1221.48,168.029ZM1113.57,60.3C1062.29,60.3 1020.1,102.494 1020.1,153.771L1207,153.771C1207,153.758 1207,153.746 1207,153.733C1207,102.477 1164.82,60.3 1113.57,60.3L1113.57,60.3ZM852.028,261.5C852.028,295.646 870.339,325.515 897.694,341.837L897.731,181.2C869.424,198.003 852.02,228.582 852.028,261.5ZM1310.19,153.696C1310.19,153.683 1310.19,153.67 1310.19,153.658C1310.19,104.996 1270.14,64.953 1221.48,64.953C1221.47,64.953 1221.46,64.953 1221.44,64.953L1221.44,153.658L1310.19,153.696Z" style="fill:rgb(207,64,55);fill-rule:nonzero;"/>
                </g>
            </g>
        </g>
        <path d="M1560.69,126.191L1625.23,126.191L1725.08,322.1L1725.83,322.1L1725.83,126.191L1776.11,126.191L1776.11,388.141L1711.95,388.141L1611.76,192.194L1611.01,192.194L1611.01,388.141L1560.73,388.141L1560.73,126.191L1560.69,126.191ZM1984.71,377.259C1966.32,387.391 1945.31,392.644 1918.25,392.644C1854.46,392.644 1817.32,355.871 1817.32,292.419C1817.32,236.509 1846.96,190.318 1907.03,190.318C1978.7,190.318 1998.97,239.511 1998.97,307.053L1865.35,307.053C1867.6,338.198 1889.36,355.834 1920.5,355.834C1944.89,355.834 1965.91,346.828 1984.67,336.284L1984.67,377.259L1984.71,377.259ZM1950.94,272.532C1949.43,248.142 1938.18,227.129 1910.04,227.129C1881.89,227.129 1867.6,246.641 1865.38,272.532L1950.94,272.532ZM2016.53,194.859L2069.85,194.859L2112.62,337.86L2113.41,337.86L2152.44,194.859L2211.01,194.859L2253.04,337.86L2253.79,337.86L2293.94,194.859L2341.97,194.859L2282.68,388.141L2223.39,388.141L2181.33,240.637L2180.58,240.637L2139.3,388.141L2081.89,388.141L2016.53,194.859ZM2486.69,235.384C2471.31,230.131 2460.05,227.129 2441.67,227.129C2428.16,227.129 2412.02,232.007 2412.02,248.517C2412.02,279.286 2499.45,259.774 2499.45,329.567C2499.45,374.595 2459.3,392.644 2418.4,392.644C2399.26,392.644 2379.75,389.267 2361.33,384.351L2364.33,343.076C2380.09,350.956 2396.6,355.834 2413.86,355.834C2426.62,355.834 2446.88,350.956 2446.88,332.194C2446.88,294.258 2359.45,320.186 2359.45,250.356C2359.45,208.705 2395.85,190.281 2435.29,190.281C2458.93,190.281 2474.31,194.033 2490.07,197.41L2486.69,235.384Z" style="fill:rgb(28,72,130);fill-rule:nonzero;"/>
    </g>
</svg>
